icons/misc/mob.svg

<svg viewBox="0 0 12.7 12.7" xmlns="http://www.w3.org/2000/svg">
  <g>
    <path d="m 1.3616553,1.8809633 c -0.1046805,0.0043 -0.060601,0.2209481 -0.060601,0.4258645 0.055208,0.8859809 0.2169019,1.5810781 0.6948315,2.2513544 C 2.2205323,4.8718049 2.5773254,4.9987888 3.1572597,5.076193 3.4900073,5.120605 3.9000568,5.2228647 4.0388744,5.2389012 4.9298119,5.3418247 4.9921751,5.3975233 4.8374741,5.0288748 4.6494949,4.5809224 4.6454643,4.4518301 4.58677,4.124016 4.4909524,3.5888567 4.2795109,3.124323 4.0737402,3.0830135 4.0015078,3.0685113 3.7084516,2.977281 3.5656914,2.9360777 3.2155171,2.83501 3.0138986,2.7460333 2.6666437,2.5857567 2.3994794,2.4591797 2.1078292,2.3152099 1.95936,2.2221529 1.8108908,2.1290959 1.5531334,1.9744514 1.4886675,1.9324321 1.4319268,1.8954498 1.3909656,1.8797571 1.3616553,1.8809633 Z m 9.9650657,0 c -0.02826,0.00272 -0.06574,0.019109 -0.11539,0.051469 -0.06447,0.04202 -0.322223,0.1966636 -0.470693,0.2897206 C 10.59217,2.3152103 10.300519,2.4591797 10.033355,2.5857567 9.6860993,2.7460333 9.4844812,2.83501 9.1343068,2.9360777 8.991547,2.9772806 8.6984905,3.0685108 8.626258,3.0830135 8.4204873,3.1243226 8.2090467,3.5888567 8.1132281,4.124016 8.0545339,4.4518301 8.0505034,4.580922 7.8625242,5.0288748 7.7078232,5.3975233 7.7701863,5.3418251 8.661124,5.2389012 8.7999414,5.2228647 9.2099909,5.1206048 9.5427385,5.076193 10.122673,4.9987882 10.479467,4.8718045 10.704113,4.5581822 c 0.488763,-0.6379877 0.688012,-1.5361701 0.694831,-2.2513544 0,-0.2049164 0.04408,-0.4215593 -0.0606,-0.4258645 -0.0037,-1.509e-4 -0.0076,-3.86e-4 -0.01162,0 z M 2.4076384,6.9680944 C 2.2898103,6.967542 2.3046801,7.0808293 2.310512,7.2088365 2.407014,9.3265491 2.341751,9.5330324 2.1727078,10.601641 2.1358448,10.834672 2.1379358,10.837025 2.310512,10.804197 3.4516203,10.587122 3.7897654,10.233456 3.8056038,9.8478687 3.7929258,9.6675878 3.7864688,8.7473677 3.9550299,9.1065491 c 0.018773,0.040005 0.2866151,0.4833295 0.4026205,0.8367869 0.114733,0.349581 1.2735342,0.084677 1.9923492,0.084677 0.7188149,0 1.877616,0.264907 1.9923489,-0.084677 0.1160055,-0.3534574 0.3838469,-0.7967823 0.4026207,-0.8367869 0.168561,-0.3591818 0.1621056,0.5610387 0.149426,0.7413196 0.015836,0.3855873 0.3539836,0.7392533 1.4950928,0.9563283 0.172576,0.03283 0.174666,0.03047 0.137803,-0.202556 -0.169045,-1.0686086 -0.234307,-1.2750919 -0.137803,-3.3928045 0.0059,-0.1280076 0.0207,-0.2412951 -0.09713,-0.2407421 -0.03928,1.828e-4 -0.09375,0.0133 -0.167689,0.042337 C 9.7515456,7.110053 9.3415698,7.2434394 8.9749189,7.3532824 8.5861391,7.4697546 8.4815707,7.5327502 8.3431782,7.7094145 8.1233322,7.9900567 8.0799519,8.1183466 7.9629717,8.3660596 7.6710194,8.9842836 7.7966052,9.1518438 7.4316787,8.1294679 7.2714185,7.680482 7.3915788,7.6612657 6.3499992,7.6612657 c -1.0415798,0 -0.9214195,0.019216 -1.0816796,0.4682018 C 4.9033934,9.1518438 5.0289788,8.9842832 4.7370265,8.3660592 4.6200455,8.118346 4.5766657,7.9900563 4.35682,7.7094141 4.2184279,7.5327498 4.1138593,7.4697537 3.7250794,7.3532819 3.3584286,7.2434385 2.9484531,7.1100526 2.575328,7.0104317 2.5013946,6.9813934 2.4469145,6.9682768 2.4076384,6.9680944 Z" />
  </g>
</svg>

<svg viewBox="0 0 12.7 12.7" xmlns="http://www.w3.org/2000/svg"><path d="M1.362 1.881c-.105.004-.06.22-.06.426.054.886.216 1.58.694 2.251.225.314.581.44 1.161.518.333.045.743.147.882.163.89.103.953.159.798-.21-.188-.448-.192-.577-.25-.905-.096-.535-.307-1-.513-1.041-.072-.014-.366-.106-.508-.147a5.529 5.529 0 0 1-.9-.35 8.513 8.513 0 0 1-.707-.364c-.148-.093-.406-.248-.47-.29-.057-.037-.098-.052-.127-.051Zm9.965 0a.283.283 0 0 0-.116.051c-.064.042-.322.197-.47.29a8.63 8.63 0 0 1-.708.364c-.347.16-.549.249-.899.35-.142.041-.436.133-.508.147-.206.041-.417.506-.513 1.041-.058.328-.062.457-.25.905-.155.369-.093.313.798.21.139-.016.549-.118.882-.163.58-.077.936-.204 1.161-.518.489-.638.688-1.536.695-2.251 0-.205.044-.422-.06-.426h-.012zm-8.92 5.087c-.117 0-.102.113-.096.24.096 2.119.03 2.325-.138 3.394-.037.233-.035.235.138.202 1.14-.217 1.479-.57 1.495-.956-.013-.18-.02-1.1.149-.741.019.04.287.483.403.836.114.35 1.273.085 1.992.085.719 0 1.878.265 1.992-.085.116-.353.384-.796.403-.836.169-.36.162.56.15.74.015.386.353.74 1.494.957.173.033.175.03.138-.202-.169-1.069-.234-1.275-.138-3.393.006-.128.021-.241-.097-.24a.5.5 0 0 0-.167.041c-.373.1-.783.233-1.15.343-.389.117-.493.18-.632.356-.22.281-.263.41-.38.657-.292.618-.166.786-.531-.237-.16-.449-.04-.468-1.082-.468s-.921.02-1.082.468c-.365 1.023-.239.855-.531.237-.117-.248-.16-.376-.38-.657-.139-.176-.243-.24-.632-.356-.367-.11-.777-.243-1.15-.343a.5.5 0 0 0-.167-.042Z"/></svg>
